svg/pocket-watch.svg

<svg xmlns="http://www.w3.org/2000/svg" viewBox="0 0 48 64" enable-background="new 0 0 48 64"><style type="text/css">.st0{fill:#333333;}</style><title>pocket-watch</title><desc>Created with Sketch.</desc><path class="st0" d="M31.1 17.1c1.8-1.8 2.9-4.3 2.9-7.1 0-5.5-4.5-10-10-10s-10 4.5-10 10c0 2.8 1.1 5.3 2.9 7.1-9.8 3-16.9 12.1-16.9 22.9 0 13.3 10.7 24 24 24s24-10.7 24-24c0-10.8-7.1-19.9-16.9-22.9zm-14.1-7.1c0-3.9 3.1-7 7-7s7 3.1 7 7c0 2.7-1.5 5.1-3.8 6.2l-1.5-.2c.2-.3.3-.7.3-1.1 0-1.1-.9-2-2-2s-2 .9-2 2c0 .4.1.8.3 1.1-.5 0-1 .1-1.5.2-2.3-1.1-3.8-3.5-3.8-6.2zm7 50c-11 0-20-9-20-20s9-20 20-20 20 9 20 20-9 20-20 20zM35 40h-10v-17c0-.6-.4-1-1-1h-1c-.6 0-1 .4-1 1v19c0 .6.4 1 1 1h12c.6 0 1-.4 1-1v-1c0-.6-.4-1-1-1z"/></svg>

<?xml version="1.0" encoding="utf-8"?>
<!-- Generator: Adobe Illustrator 21.0.0, SVG Export Plug-In . SVG Version: 6.00 Build 0)  -->
<svg version="1.1" id="Layer_1" xmlns="http://www.w3.org/2000/svg" xmlns:xlink="http://www.w3.org/1999/xlink" x="0px" y="0px"
	 viewBox="0 0 48 64" style="enable-background:new 0 0 48 64;" xml:space="preserve">
<style type="text/css">
	.st0{fill:#333333;}
</style>
<title>pocket-watch</title>
<desc>Created with Sketch.</desc>
<g>
	<path class="st0" d="M31.1,17.1c1.8-1.8,2.9-4.3,2.9-7.1c0-5.5-4.5-10-10-10S14,4.5,14,10c0,2.8,1.1,5.3,2.9,7.1
		C7.1,20.1,0,29.2,0,40c0,13.3,10.7,24,24,24s24-10.7,24-24C48,29.2,40.9,20.1,31.1,17.1z M17,10c0-3.9,3.1-7,7-7s7,3.1,7,7
		c0,2.7-1.5,5.1-3.8,6.2c-0.5-0.1-1-0.1-1.5-0.2c0.2-0.3,0.3-0.7,0.3-1.1c0-1.1-0.9-2-2-2s-2,0.9-2,2c0,0.4,0.1,0.8,0.3,1.1
		c-0.5,0-1,0.1-1.5,0.2C18.5,15.1,17,12.7,17,10z M24,60C13,60,4,51,4,40c0-11,9-20,20-20s20,9,20,20C44,51,35,60,24,60z"/>
	<path class="st0" d="M35,40H25V23c0-0.6-0.4-1-1-1h-1c-0.6,0-1,0.4-1,1v18v1c0,0.6,0.4,1,1,1h12c0.6,0,1-0.4,1-1v-1
		C36,40.4,35.6,40,35,40z"/>
</g>
</svg>
